site/src/assets/images/research/consensus-verification/gradient-dark.drawio.svg

<svg xmlns="http://www.w3.org/2000/svg" xmlns:xlink="http://www.w3.org/1999/xlink" viewBox="-.5 -.5 601 179">
    <rect width="600" height="80" y="97" fill="none" stroke="#fff" pointer-events="all" rx="12" ry="12" />
    <path fill="none" stroke="#fff" d="M20 122h70v25H20z" pointer-events="all" />
    <switch transform="translate(-.5 -.5)">
        <foreignObject width="100%" height="100%" pointer-events="none"
            requiredFeatures="http://www.w3.org/TR/SVG11/feature#Extensibility"
            style="overflow:visible;text-align:left">
            <div xmlns="http://www.w3.org/1999/xhtml"
                style="display:flex;align-items:unsafe center;justify-content:unsafe center;width:68px;height:1px;padding-top:135px;margin-left:21px">
                <div data-drawio-colors="color: rgb(0, 0, 0);"
                    style="box-sizing:border-box;font-size:0;text-align:center">
                    <div
                        style="display:inline-block;font-size:12px;font-family:Helvetica;color:#000;line-height:1.2;pointer-events:all;white-space:normal;overflow-wrap:normal">
                        <font color="#fff">
                            Centralized
                        </font>
                    </div>
                </div>
            </div>
        </foreignObject>
        <text x="55" y="138" font-family="Helvetica" font-size="12" text-anchor="middle">
            Centralized
        </text>
    </switch>
    <path fill="none" stroke="#fff" d="M500 122h80v25h-80z" pointer-events="all" />
    <switch transform="translate(-.5 -.5)">
        <foreignObject width="100%" height="100%" pointer-events="none"
            requiredFeatures="http://www.w3.org/TR/SVG11/feature#Extensibility"
            style="overflow:visible;text-align:left">
            <div xmlns="http://www.w3.org/1999/xhtml"
                style="display:flex;align-items:unsafe center;justify-content:unsafe center;width:78px;height:1px;padding-top:135px;margin-left:501px">
                <div data-drawio-colors="color: rgb(0, 0, 0);"
                    style="box-sizing:border-box;font-size:0;text-align:center">
                    <div
                        style="display:inline-block;font-size:12px;font-family:Helvetica;color:#000;line-height:1.2;pointer-events:all;white-space:normal;overflow-wrap:normal">
                        <font color="#fff">
                            Decentralized
                        </font>
                    </div>
                </div>
            </div>
        </foreignObject>
        <text x="540" y="138" font-family="Helvetica" font-size="12" text-anchor="middle">
            Decentralized
        </text>
    </switch>
    <rect width="80" height="60" x="100" y="-.04" fill="none" stroke="#fff" pointer-events="all" rx="9" ry="9" />
    <switch transform="translate(-.5 -.5)">
        <foreignObject width="100%" height="100%" pointer-events="none"
            requiredFeatures="http://www.w3.org/TR/SVG11/feature#Extensibility"
            style="overflow:visible;text-align:left">
            <div xmlns="http://www.w3.org/1999/xhtml"
                style="display:flex;align-items:unsafe center;justify-content:unsafe center;width:78px;height:1px;padding-top:30px;margin-left:101px">
                <div data-drawio-colors="color: rgb(0, 0, 0);"
                    style="box-sizing:border-box;font-size:0;text-align:center">
                    <div
                        style="display:inline-block;font-size:12px;font-family:Helvetica;color:#000;line-height:1.2;pointer-events:all;white-space:normal;overflow-wrap:normal">
                        <font color="#fff">
                            Multi-Signature
                        </font>
                    </div>
                </div>
            </div>
        </foreignObject>
        <text x="140" y="34" font-family="Helvetica" font-size="12" text-anchor="middle">
            Multi-Signatu...
        </text>
    </switch>
    <path fill="none" stroke="#fff" stroke-miterlimit="10" d="M140 59.96v30.67" pointer-events="stroke" />
    <path fill="#fff" stroke="#fff" stroke-miterlimit="10" d="m140 95.88-3.5-7 3.5 1.75 3.5-1.75Z"
        pointer-events="all" />
    <rect width="80" height="60" y="-.04" fill="none" stroke="#fff" pointer-events="all" rx="9" ry="9" />
    <switch transform="translate(-.5 -.5)">
        <foreignObject width="100%" height="100%" pointer-events="none"
            requiredFeatures="http://www.w3.org/TR/SVG11/feature#Extensibility"
            style="overflow:visible;text-align:left">
            <div xmlns="http://www.w3.org/1999/xhtml"
                style="display:flex;align-items:unsafe center;justify-content:unsafe center;width:78px;height:1px;padding-top:30px;margin-left:1px">
                <div data-drawio-colors="color: rgb(0, 0, 0);"
                    style="box-sizing:border-box;font-size:0;text-align:center">
                    <div
                        style="display:inline-block;font-size:12px;font-family:Helvetica;color:#000;line-height:1.2;pointer-events:all;white-space:normal;overflow-wrap:normal">
                        <font color="#fff">
                            Single Signature
                        </font>
                    </div>
                </div>
            </div>
        </foreignObject>
        <text x="40" y="34" font-family="Helvetica" font-size="12" text-anchor="middle">
            Single Signat...
        </text>
    </switch>
    <path fill="none" stroke="#fff" stroke-miterlimit="10" d="M40 59.96v30.67" pointer-events="stroke" />
    <path fill="#fff" stroke="#fff" stroke-miterlimit="10" d="m40 95.88-3.5-7 3.5 1.75 3.5-1.75Z"
        pointer-events="all" />
    <rect width="80" height="60" x="200" y="-.04" fill="none" stroke="#fff" pointer-events="all" rx="9" ry="9" />
    <switch transform="translate(-.5 -.5)">
        <foreignObject width="100%" height="100%" pointer-events="none"
            requiredFeatures="http://www.w3.org/TR/SVG11/feature#Extensibility"
            style="overflow:visible;text-align:left">
            <div xmlns="http://www.w3.org/1999/xhtml"
                style="display:flex;align-items:unsafe center;justify-content:unsafe center;width:78px;height:1px;padding-top:30px;margin-left:201px">
                <div data-drawio-colors="color: rgb(0, 0, 0);"
                    style="box-sizing:border-box;font-size:0;text-align:center">
                    <div
                        style="display:inline-block;font-size:12px;font-family:Helvetica;color:#000;line-height:1.2;pointer-events:all;white-space:normal;overflow-wrap:normal">
                        <font color="#fff">
                            MPC
                        </font>
                    </div>
                </div>
            </div>
        </foreignObject>
        <text x="240" y="34" font-family="Helvetica" font-size="12" text-anchor="middle">
            MPC
        </text>
    </switch>
    <path fill="none" stroke="#fff" stroke-miterlimit="10" d="M240 59.96v30.67" pointer-events="stroke" />
    <path fill="#fff" stroke="#fff" stroke-miterlimit="10" d="m240 95.88-3.5-7 3.5 1.75 3.5-1.75Z"
        pointer-events="all" />
    <rect width="80" height="60" x="424" y="-.04" fill="none" stroke="#fff" pointer-events="all" rx="9" ry="9" />
    <switch transform="translate(-.5 -.5)">
        <foreignObject width="100%" height="100%" pointer-events="none"
            requiredFeatures="http://www.w3.org/TR/SVG11/feature#Extensibility"
            style="overflow:visible;text-align:left">
            <div xmlns="http://www.w3.org/1999/xhtml"
                style="display:flex;align-items:unsafe center;justify-content:unsafe center;width:78px;height:1px;padding-top:30px;margin-left:425px">
                <div data-drawio-colors="color: rgb(0, 0, 0);"
                    style="box-sizing:border-box;font-size:0;text-align:center">
                    <div
                        style="display:inline-block;font-size:12px;font-family:Helvetica;color:#000;line-height:1.2;pointer-events:all;white-space:normal;overflow-wrap:normal">
                        <font color="#fff">
                            Consensus Verification
                        </font>
                    </div>
                </div>
            </div>
        </foreignObject>
        <text x="464" y="34" font-family="Helvetica" font-size="12" text-anchor="middle">
            Consensus Ver...
        </text>
    </switch>
    <path fill="none" stroke="#fff" stroke-miterlimit="10" d="M464 59.96v30.67" pointer-events="stroke" />
    <path fill="#fff" stroke="#fff" stroke-miterlimit="10" d="m464 95.88-3.5-7 3.5 1.75 3.5-1.75Z"
        pointer-events="all" />
    <rect width="80" height="60" x="520" y="-.04" fill="none" stroke="#fff" pointer-events="all" rx="9" ry="9" />
    <switch transform="translate(-.5 -.5)">
        <foreignObject width="100%" height="100%" pointer-events="none"
            requiredFeatures="http://www.w3.org/TR/SVG11/feature#Extensibility"
            style="overflow:visible;text-align:left">
            <div xmlns="http://www.w3.org/1999/xhtml"
                style="display:flex;align-items:unsafe center;justify-content:unsafe center;width:78px;height:1px;padding-top:30px;margin-left:521px">
                <div data-drawio-colors="color: rgb(0, 0, 0);"
                    style="box-sizing:border-box;font-size:0;text-align:center">
                    <div
                        style="display:inline-block;font-size:12px;font-family:Helvetica;color:#000;line-height:1.2;pointer-events:all;white-space:normal;overflow-wrap:normal">
                        <font color="#fff">
                            State Verification
                        </font>
                    </div>
                </div>
            </div>
        </foreignObject>
        <text x="560" y="34" font-family="Helvetica" font-size="12" text-anchor="middle">
            State Verific...
        </text>
    </switch>
    <path fill="none" stroke="#fff" stroke-miterlimit="10" d="M560 59.96v30.67" pointer-events="stroke" />
    <path fill="#fff" stroke="#fff" stroke-miterlimit="10" d="m560 95.88-3.5-7 3.5 1.75 3.5-1.75Z"
        pointer-events="all" />
    <switch>
        <a xlink:href="https://www.diagrams.net/doc/faq/svg-export-text-problems" target="_blank"
            transform="translate(0 -5)">
            <text x="50%" y="100%" font-size="10" text-anchor="middle">
                Text is not SVG - cannot display
            </text>
        </a>
    </switch>
</svg>

<svg host="65bd71144e" xmlns="http://www.w3.org/2000/svg" xmlns:xlink="http://www.w3.org/1999/xlink" version="1.1" width="601px" height="179px" viewBox="-0.5 -0.5 601 179" content="&lt;mxfile&gt;&lt;diagram id=&quot;fWuebobhIb-qaJMcGt1C&quot; name=&quot;Page-1&quot;&gt;7VlNc5swEP01HJNByIB9TEjSXjKTGc/046gBGTTFyBUitvvruwLJfLpxE2ynqTkk1tPuot23esjYwsFy80mQVfLII5pajh1tLHxnOY47c+GvArYVMLH9CogFiyoI1cCc/aIatDVasIjmLUPJeSrZqg2GPMtoKFsYEYKv22YLnrbvuiIx7QHzkKR99CuLZFKhU8ev8c+UxYm5M/Jm1cySGGOdSZ6QiK8bEL63cCA4l9Wn5SagqaqdqUvl97BndrcwQTN5iINTOTyTtNC56XXJrUlW8CKLqLJHFr5dJ0zS+YqEanYN7AKWyGWqpxcsTQOecgHjjGdgdJtLwX/s6oR2iDGzHPxQXjCjV0OFpJu9GaFdnaC/KF9SKbZgoh2murK6tZCnx+uaKM/WWNIgyfgR3RvxLnJdPvigKzhcTTxQTS+Vqi4cVq8a0uTs/SwUx5AxXpRXE/Ji9T+AjAVJofsjEwYWUEWqLHpcQdnki4RAyDiDYQjxKeC3qt4MuvtGTyxZFKmIg2TX7WCfnlxkd9iduj12/QFyHfft5E5GJfeOhhd6u/S63c07QO/0SPS6o9L7WMDT6GoOBSeyEPRQgv8xrUUdvjzneuYdxJg3gtp6Lz+7aBbdqOe92g4pyXMWtktIN0x+U71+7erR98bM3UZvg3KwNQPYttvKCTmuAZTflX1tY98gtXc5ark/UcEgX7U9S3AUKmnUO7V0iITa8EKEtNHxfW4bzLkDzBlM0JRI9ty+4xCd+g5PnJXbSLcOxu3Wcdy6d0yUarHasXmI6cTanaa6z3wTSBIRU9kLVDbYLvODes4fVSXmLIuhVR37owvFkE7Y9YVOphnTi2a8STP8c2qGM6gZjT6avE4/0On0YzbuKeMp+KCC8X4Uw7xzuEjGKyVjdk7JmBxJMvDpJAOhUTUj4FlOs7zIwfEL9McCvhpKxrMPKiSuYfj8QnLAu7aLkPxBSNAepk+jJJ7bbqSxlMSdtOMeU0nGfT85l0TS/0NFPPvdHEeGXkNeVOQvVASfU0V89zjnEW9yrPMIDOufoyrz+jc9fP8b&lt;/diagram&gt;&lt;/mxfile&gt;">
    <defs/>
    <g>
        <rect x="0" y="97" width="600" height="80" rx="12" ry="12" fill="none" stroke="#ffffff" pointer-events="all"/>
        <rect x="20" y="122" width="70" height="25" fill="none" stroke="#ffffff" pointer-events="all"/>
        <g transform="translate(-0.5 -0.5)">
            <switch>
                <foreignObject pointer-events="none" width="100%" height="100%" requiredFeatures="http://www.w3.org/TR/SVG11/feature#Extensibility" style="overflow: visible; text-align: left;">
                    <div xmlns="http://www.w3.org/1999/xhtml" style="display: flex; align-items: unsafe center; justify-content: unsafe center; width: 68px; height: 1px; padding-top: 135px; margin-left: 21px;">
                        <div data-drawio-colors="color: rgb(0, 0, 0); " style="box-sizing: border-box; font-size: 0px; text-align: center;">
                            <div style="display: inline-block; font-size: 12px; font-family: Helvetica; color: rgb(0, 0, 0); line-height: 1.2; pointer-events: all; white-space: normal; overflow-wrap: normal;">
                                <font color="#ffffff">
                                    Centralized
                                </font>
                            </div>
                        </div>
                    </div>
                </foreignObject>
                <text x="55" y="138" fill="rgb(0, 0, 0)" font-family="Helvetica" font-size="12px" text-anchor="middle">
                    Centralized
                </text>
            </switch>
        </g>
        <rect x="500" y="122" width="80" height="25" fill="none" stroke="#ffffff" pointer-events="all"/>
        <g transform="translate(-0.5 -0.5)">
            <switch>
                <foreignObject pointer-events="none" width="100%" height="100%" requiredFeatures="http://www.w3.org/TR/SVG11/feature#Extensibility" style="overflow: visible; text-align: left;">
                    <div xmlns="http://www.w3.org/1999/xhtml" style="display: flex; align-items: unsafe center; justify-content: unsafe center; width: 78px; height: 1px; padding-top: 135px; margin-left: 501px;">
                        <div data-drawio-colors="color: rgb(0, 0, 0); " style="box-sizing: border-box; font-size: 0px; text-align: center;">
                            <div style="display: inline-block; font-size: 12px; font-family: Helvetica; color: rgb(0, 0, 0); line-height: 1.2; pointer-events: all; white-space: normal; overflow-wrap: normal;">
                                <font color="#ffffff">
                                    Decentralized
                                </font>
                            </div>
                        </div>
                    </div>
                </foreignObject>
                <text x="540" y="138" fill="rgb(0, 0, 0)" font-family="Helvetica" font-size="12px" text-anchor="middle">
                    Decentralized
                </text>
            </switch>
        </g>
        <rect x="100" y="-0.04" width="80" height="60" rx="9" ry="9" fill="none" stroke="#ffffff" pointer-events="all"/>
        <g transform="translate(-0.5 -0.5)">
            <switch>
                <foreignObject pointer-events="none" width="100%" height="100%" requiredFeatures="http://www.w3.org/TR/SVG11/feature#Extensibility" style="overflow: visible; text-align: left;">
                    <div xmlns="http://www.w3.org/1999/xhtml" style="display: flex; align-items: unsafe center; justify-content: unsafe center; width: 78px; height: 1px; padding-top: 30px; margin-left: 101px;">
                        <div data-drawio-colors="color: rgb(0, 0, 0); " style="box-sizing: border-box; font-size: 0px; text-align: center;">
                            <div style="display: inline-block; font-size: 12px; font-family: Helvetica; color: rgb(0, 0, 0); line-height: 1.2; pointer-events: all; white-space: normal; overflow-wrap: normal;">
                                <font color="#ffffff">
                                    Multi-Signature
                                </font>
                            </div>
                        </div>
                    </div>
                </foreignObject>
                <text x="140" y="34" fill="rgb(0, 0, 0)" font-family="Helvetica" font-size="12px" text-anchor="middle">
                    Multi-Signatu...
                </text>
            </switch>
        </g>
        <path d="M 140 59.96 L 140 90.63" fill="none" stroke="#ffffff" stroke-miterlimit="10" pointer-events="stroke"/>
        <path d="M 140 95.88 L 136.5 88.88 L 140 90.63 L 143.5 88.88 Z" fill="#ffffff" stroke="#ffffff" stroke-miterlimit="10" pointer-events="all"/>
        <rect x="0" y="-0.04" width="80" height="60" rx="9" ry="9" fill="none" stroke="#ffffff" pointer-events="all"/>
        <g transform="translate(-0.5 -0.5)">
            <switch>
                <foreignObject pointer-events="none" width="100%" height="100%" requiredFeatures="http://www.w3.org/TR/SVG11/feature#Extensibility" style="overflow: visible; text-align: left;">
                    <div xmlns="http://www.w3.org/1999/xhtml" style="display: flex; align-items: unsafe center; justify-content: unsafe center; width: 78px; height: 1px; padding-top: 30px; margin-left: 1px;">
                        <div data-drawio-colors="color: rgb(0, 0, 0); " style="box-sizing: border-box; font-size: 0px; text-align: center;">
                            <div style="display: inline-block; font-size: 12px; font-family: Helvetica; color: rgb(0, 0, 0); line-height: 1.2; pointer-events: all; white-space: normal; overflow-wrap: normal;">
                                <font color="#ffffff">
                                    Single Signature
                                </font>
                            </div>
                        </div>
                    </div>
                </foreignObject>
                <text x="40" y="34" fill="rgb(0, 0, 0)" font-family="Helvetica" font-size="12px" text-anchor="middle">
                    Single Signat...
                </text>
            </switch>
        </g>
        <path d="M 40 59.96 L 40 90.63" fill="none" stroke="#ffffff" stroke-miterlimit="10" pointer-events="stroke"/>
        <path d="M 40 95.88 L 36.5 88.88 L 40 90.63 L 43.5 88.88 Z" fill="#ffffff" stroke="#ffffff" stroke-miterlimit="10" pointer-events="all"/>
        <rect x="200" y="-0.04" width="80" height="60" rx="9" ry="9" fill="none" stroke="#ffffff" pointer-events="all"/>
        <g transform="translate(-0.5 -0.5)">
            <switch>
                <foreignObject pointer-events="none" width="100%" height="100%" requiredFeatures="http://www.w3.org/TR/SVG11/feature#Extensibility" style="overflow: visible; text-align: left;">
                    <div xmlns="http://www.w3.org/1999/xhtml" style="display: flex; align-items: unsafe center; justify-content: unsafe center; width: 78px; height: 1px; padding-top: 30px; margin-left: 201px;">
                        <div data-drawio-colors="color: rgb(0, 0, 0); " style="box-sizing: border-box; font-size: 0px; text-align: center;">
                            <div style="display: inline-block; font-size: 12px; font-family: Helvetica; color: rgb(0, 0, 0); line-height: 1.2; pointer-events: all; white-space: normal; overflow-wrap: normal;">
                                <font color="#ffffff">
                                    MPC
                                </font>
                            </div>
                        </div>
                    </div>
                </foreignObject>
                <text x="240" y="34" fill="rgb(0, 0, 0)" font-family="Helvetica" font-size="12px" text-anchor="middle">
                    MPC
                </text>
            </switch>
        </g>
        <path d="M 240 59.96 L 240 90.63" fill="none" stroke="#ffffff" stroke-miterlimit="10" pointer-events="stroke"/>
        <path d="M 240 95.88 L 236.5 88.88 L 240 90.63 L 243.5 88.88 Z" fill="#ffffff" stroke="#ffffff" stroke-miterlimit="10" pointer-events="all"/>
        <rect x="424" y="-0.04" width="80" height="60" rx="9" ry="9" fill="none" stroke="#ffffff" pointer-events="all"/>
        <g transform="translate(-0.5 -0.5)">
            <switch>
                <foreignObject pointer-events="none" width="100%" height="100%" requiredFeatures="http://www.w3.org/TR/SVG11/feature#Extensibility" style="overflow: visible; text-align: left;">
                    <div xmlns="http://www.w3.org/1999/xhtml" style="display: flex; align-items: unsafe center; justify-content: unsafe center; width: 78px; height: 1px; padding-top: 30px; margin-left: 425px;">
                        <div data-drawio-colors="color: rgb(0, 0, 0); " style="box-sizing: border-box; font-size: 0px; text-align: center;">
                            <div style="display: inline-block; font-size: 12px; font-family: Helvetica; color: rgb(0, 0, 0); line-height: 1.2; pointer-events: all; white-space: normal; overflow-wrap: normal;">
                                <font color="#ffffff">
                                    Consensus Verification
                                </font>
                            </div>
                        </div>
                    </div>
                </foreignObject>
                <text x="464" y="34" fill="rgb(0, 0, 0)" font-family="Helvetica" font-size="12px" text-anchor="middle">
                    Consensus Ver...
                </text>
            </switch>
        </g>
        <path d="M 464 59.96 L 464 90.63" fill="none" stroke="#ffffff" stroke-miterlimit="10" pointer-events="stroke"/>
        <path d="M 464 95.88 L 460.5 88.88 L 464 90.63 L 467.5 88.88 Z" fill="#ffffff" stroke="#ffffff" stroke-miterlimit="10" pointer-events="all"/>
        <rect x="520" y="-0.04" width="80" height="60" rx="9" ry="9" fill="none" stroke="#ffffff" pointer-events="all"/>
        <g transform="translate(-0.5 -0.5)">
            <switch>
                <foreignObject pointer-events="none" width="100%" height="100%" requiredFeatures="http://www.w3.org/TR/SVG11/feature#Extensibility" style="overflow: visible; text-align: left;">
                    <div xmlns="http://www.w3.org/1999/xhtml" style="display: flex; align-items: unsafe center; justify-content: unsafe center; width: 78px; height: 1px; padding-top: 30px; margin-left: 521px;">
                        <div data-drawio-colors="color: rgb(0, 0, 0); " style="box-sizing: border-box; font-size: 0px; text-align: center;">
                            <div style="display: inline-block; font-size: 12px; font-family: Helvetica; color: rgb(0, 0, 0); line-height: 1.2; pointer-events: all; white-space: normal; overflow-wrap: normal;">
                                <font color="#ffffff">
                                    State Verification
                                </font>
                            </div>
                        </div>
                    </div>
                </foreignObject>
                <text x="560" y="34" fill="rgb(0, 0, 0)" font-family="Helvetica" font-size="12px" text-anchor="middle">
                    State Verific...
                </text>
            </switch>
        </g>
        <path d="M 560 59.96 L 560 90.63" fill="none" stroke="#ffffff" stroke-miterlimit="10" pointer-events="stroke"/>
        <path d="M 560 95.88 L 556.5 88.88 L 560 90.63 L 563.5 88.88 Z" fill="#ffffff" stroke="#ffffff" stroke-miterlimit="10" pointer-events="all"/>
    </g>
    <switch>
        <g requiredFeatures="http://www.w3.org/TR/SVG11/feature#Extensibility"/>
        <a transform="translate(0,-5)" xlink:href="https://www.diagrams.net/doc/faq/svg-export-text-problems" target="_blank">
            <text text-anchor="middle" font-size="10px" x="50%" y="100%">
                Text is not SVG - cannot display
            </text>
        </a>
    </switch>
</svg>
